icon-themes/sifr_svg/cmd/lc_footnotedialog.svg

<svg viewBox="0 0 24 24" xmlns="http://www.w3.org/2000/svg"><path d="m21 1c0 1.163513-1 2-2 2v2h2v4h2v-8zm-8 4v10h.001953l.300781.400391c.283558.378077.72467.59924 1.197266.599609.177262 0 .343306-.033667.5-.087891v-2.908203-.003906-2-1-5zm-10 4v2h6v2h-5c-1.6568542 0-3 1.343146-3 3s1.3431458 3 3 3h6.789062c-.162207-.132552-.323857-.269043-.482421-.421875l-.306641-.294922v-3.283203h1v-4c0-1.10457-.89543-2-2-2zm13 2v1.503906c.628416.471311.998772 1.210576 1 1.996094 0 1.380712-1.119288 2.5-2.5 2.5-.786206-.000614-1.526324-.371035-1.998047-1h-1.501953v1.857422c1.371429 1.321851 2.804414 1.714844 4.115234 1.714844h2.742188l3.427734 3.427734h1.714844v-1.714844l-3.427734-3.427734v-2.742188c0-1.511964-.368607-2.743805-1.714844-4.115234zm3.181641.005859c.645598.832765 1.028922 1.692666 1.222656 2.572266a2 2 0 0 1 .595703 1.421875 2 2 0 0 1 -.427734 1.232422v1.210937l.783203.783203a4 4 0 0 0 1.644531-3.226562 4 4 0 0 0 -3.818359-3.994141zm-15.181641 3.994141h5v2h-5c-.5522847 0-1-.447715-1-1s.4477153-1 1-1z" fill="#555753"/></svg>

<svg xmlns="http://www.w3.org/2000/svg" viewBox="0 0 24 24">
  <path
     style="fill:#555753"
     d="M 21 1 C 21 2.163513 20 3 19 3 L 19 5 L 21 5 L 21 9 L 23 9 L 23 1 L 21 1 z M 13 5 L 13 15 L 13.001953 15 L 13.302734 15.400391 C 13.586292 15.778468 14.027404 15.999631 14.5 16 C 14.677262 16 14.843306 15.966333 15 15.912109 L 15 13.003906 L 15 13 L 15 11 L 15 10 L 15 5 L 13 5 z M 3 9 L 3 11 L 9 11 L 9 13 L 4 13 C 2.3431458 13 1 14.343146 1 16 C 1 17.656854 2.3431458 19 4 19 L 10.789062 19 C 10.626855 18.867448 10.465205 18.730957 10.306641 18.578125 L 10 18.283203 L 10 15 L 11 15 L 11 11 C 11 9.89543 10.10457 9 9 9 L 3 9 z M 16 11 L 16 12.503906 C 16.628416 12.975217 16.998772 13.714482 17 14.5 C 17 15.880712 15.880712 17 14.5 17 C 13.713794 16.999386 12.973676 16.628965 12.501953 16 L 11 16 L 11 17.857422 C 12.371429 19.179273 13.804414 19.572266 15.115234 19.572266 L 17.857422 19.572266 L 21.285156 23 L 23 23 L 23 21.285156 L 19.572266 17.857422 L 19.572266 15.115234 C 19.572266 13.60327 19.203659 12.371429 17.857422 11 L 16 11 z M 19.181641 11.005859 C 19.827239 11.838624 20.210563 12.698525 20.404297 13.578125 A 2 2 0 0 1 21 15 A 2 2 0 0 1 20.572266 16.232422 L 20.572266 17.443359 L 21.355469 18.226562 A 4 4 0 0 0 23 15 A 4 4 0 0 0 19.181641 11.005859 z M 4 15 L 9 15 L 9 17 L 4 17 C 3.4477153 17 3 16.552285 3 16 C 3 15.447715 3.4477153 15 4 15 z "
     />
</svg>
